X:690
T:Kylebrack Rambler, The
R:reel
C:Finbarr Dwyer (1946-2014)
H:Also played in Dmix
D:Dervish: Harmony Hill
D:Altan: Island Angel
Z:id:hn-reel-690
M:C|
K:Amix
AE~E2 AEcE | AE~E2 GEDE | AE~E2 ~A3B | cdec d2cd |
eaab agef | gdeg dBGB | AGED EA~A2 |1 cedB ABcB :|2 cedB ABcd ||
|: ecdB cA~A2 | ~a3g edef | g2dg Bgdg | gaba gede |
a2c'e ae~e2 | ge~e2 Be~e2 | dB~B2 GABd | gedB ABcd :|
|: eA~A2 EA~A2 | ae~e2 agef | g2fa gedB | Ggfa gedB |
cA~A2 EA~A2 | ae~e2 agef | g2fa gedB |1 GBdB ABcd :|2 GBdB ABcB ||
P:variations
|: AE~E2 cE~E2 | ~A3F GEDB | BAGB ~A3B | BAec d2ag |
eaab agef | ge~e2 dBGA | AGED EAAB |1 cedB ~A3B :|2 cedB A2 (3Bcd ||
|: eAdA cA~A2 | gaag eaaf | g2dg Bd (3fga | ~g3a ageg |
a2c'e ae~e2 | ge~e2 (3Bcd ge | dG (3Bcd g2af | gedB BA~A2 :|
|: eA~A2 EA~A2 | ~a3g agfa | g2af gedB | ~a3f gedB |
cA~A2 EA~A2 | ~a3g agfa | g2af gedB | GBdB BA~A2 :|
P:more variations
|: AE~E2 AE=cE | AE~E2 GEDE | AE~E2 AEAB | cAec dBcd |
ea~a2 agef | g2eg dGBd | AGED EA~A2 |1 cedB AB=cB :|2 cedB ABcd ||
|: e2de cA~A2 | abag edaf | g2dg Bgdg | gdba gedB |
aec'e ae~e2 | ^ge~e2 Be~e2 | dB~B2 GABd | gedB ABcd :|
|: eA~A2 EA~A2 | ae~e2 agef | gefa gedB | Ggfa gedB |
cA~A2 EA~A2 | ae~e2 agef | gefa gedB |1 GBdB ABcd :|2 GBdB AB=cB ||

